X:41
T: Tochter als Faehnrich
N: Q1096C
O: Osteuropa, UdSSR, Karpato - Ukraine
N: Melodievergleich zu Q0096A, anderes Lied.  Verzierungen
N: (Vorschlaege)
R: ???
M: 4/4
L: 1/16
K: G
D4 | G3AB4c4A4 | G12
d4 | c4B4A4G4 | A12
c4 | e4c4c4c4 | d6c2B4
d4 | c4B4A4B4 | F4E4D6
D2 | G3AB4c4A4 | G12

